style-guide/assets/wds-icons-clipboard-tiny.svg

<svg xmlns="http://www.w3.org/2000/svg" xmlns:xlink="http://www.w3.org/1999/xlink" width="12" height="12" viewBox="0 0 12 12">
  <defs>
    <path id="clipboard-a" d="M5,8.5 C4.87203884,8.5 4.74407768,8.45118446 4.64644661,8.35355339 L3.64644661,7.35355339 C3.45118446,7.15829124 3.45118446,6.84170876 3.64644661,6.64644661 C3.84170876,6.45118446 4.15829124,6.45118446 4.35355339,6.64644661 L5,7.29289322 L7.64644661,4.64644661 C7.84170876,4.45118446 8.15829124,4.45118446 8.35355339,4.64644661 C8.54881554,4.84170876 8.54881554,5.15829124 8.35355339,5.35355339 L5.35355339,8.35355339 C5.25592232,8.45118446 5.12796116,8.5 5,8.5 Z M3.75,1 C3.75,0.44771525 4.19771525,0 4.75,0 L7.25,0 C7.80228475,0 8.25,0.44771525 8.25,1 L11,1 C11.5522847,1 12,1.44771525 12,2 L12,11 C12,11.5522847 11.5522847,12 11,12 L1,12 C0.44771525,12 0,11.5522847 0,11 L0,2 C0,1.44771525 0.44771525,1 1,1 L3.75,1 Z M2,10 L10,10 L10,3 L2,3 L2,10 Z"/>
  </defs>
  <use xlink:href="#clipboard-a"/>
</svg>

<svg viewBox="0 0 12 12" xmlns="http://www.w3.org/2000/svg">
  <path d="M5 8.5a.498.498 0 0 1-.354-.146l-1-1a.5.5 0 1 1 .708-.708L5 7.293l2.646-2.647a.5.5 0 1 1 .708.708l-3 3A.498.498 0 0 1 5 8.5zM3.75 1a1 1 0 0 1 1-1h2.5a1 1 0 0 1 1 1H11a1 1 0 0 1 1 1v9a1 1 0 0 1-1 1H1a1 1 0 0 1-1-1V2a1 1 0 0 1 1-1h2.75zM2 10h8V3H2v7z"/>
</svg>
